img/about-me/info/close-icon.svg

<svg width="19" height="19" viewBox="0 0 19 19" fill="none" xmlns="http://www.w3.org/2000/svg">
<path d="M9.34771 8.71879L13.0602 5.00629L14.1207 6.06679L10.4082 9.77929L14.1207 13.4918L13.0602 14.5523L9.34771 10.8398L5.63521 14.5523L4.57471 13.4918L8.28721 9.77929L4.57471 6.06679L5.63521 5.00629L9.34771 8.71879Z" fill="#607B96"/>
</svg>

<svg width="19" height="19" fill="none" xmlns="http://www.w3.org/2000/svg"><path d="M9.348 8.719l3.712-3.713 1.06 1.06-3.712 3.713 3.713 3.713-1.06 1.06-3.713-3.712-3.713 3.712-1.06-1.06 3.712-3.713-3.712-3.712 1.06-1.06 3.713 3.712z" fill="#607B96"/></svg>
